super_admin_panel/assets/icons/menu_dashboard.svg

<?xml version="1.0" encoding="utf-8"?><!-- Uploaded to: SVG Repo, www.svgrepo.com, Generator: SVG Repo Mixer Tools -->
<svg width="800px" height="800px" viewBox="0 -0.5 25 25" fill="none" xmlns="http://www.w3.org/2000/svg">
<path fill-rule="evenodd" clip-rule="evenodd" d="M9.918 10.0005H7.082C6.66587 9.99708 6.26541 10.1591 5.96873 10.4509C5.67204 10.7427 5.50343 11.1404 5.5 11.5565V17.4455C5.5077 18.3117 6.21584 19.0078 7.082 19.0005H9.918C10.3341 19.004 10.7346 18.842 11.0313 18.5502C11.328 18.2584 11.4966 17.8607 11.5 17.4445V11.5565C11.4966 11.1404 11.328 10.7427 11.0313 10.4509C10.7346 10.1591 10.3341 9.99708 9.918 10.0005Z" stroke="#000000" stroke-width="1.5" stroke-linecap="round" stroke-linejoin="round"/>
<path fill-rule="evenodd" clip-rule="evenodd" d="M9.918 4.0006H7.082C6.23326 3.97706 5.52559 4.64492 5.5 5.4936V6.5076C5.52559 7.35629 6.23326 8.02415 7.082 8.0006H9.918C10.7667 8.02415 11.4744 7.35629 11.5 6.5076V5.4936C11.4744 4.64492 10.7667 3.97706 9.918 4.0006Z" stroke="#000000" stroke-width="1.5" stroke-linecap="round" stroke-linejoin="round"/>
<path fill-rule="evenodd" clip-rule="evenodd" d="M15.082 13.0007H17.917C18.3333 13.0044 18.734 12.8425 19.0309 12.5507C19.3278 12.2588 19.4966 11.861 19.5 11.4447V5.55666C19.4966 5.14054 19.328 4.74282 19.0313 4.45101C18.7346 4.1592 18.3341 3.9972 17.918 4.00066H15.082C14.6659 3.9972 14.2654 4.1592 13.9687 4.45101C13.672 4.74282 13.5034 5.14054 13.5 5.55666V11.4447C13.5034 11.8608 13.672 12.2585 13.9687 12.5503C14.2654 12.8421 14.6659 13.0041 15.082 13.0007Z" stroke="#000000" stroke-width="1.5" stroke-linecap="round" stroke-linejoin="round"/>
<path fill-rule="evenodd" clip-rule="evenodd" d="M15.082 19.0006H17.917C18.7661 19.0247 19.4744 18.3567 19.5 17.5076V16.4936C19.4744 15.6449 18.7667 14.9771 17.918 15.0006H15.082C14.2333 14.9771 13.5256 15.6449 13.5 16.4936V17.5066C13.525 18.3557 14.2329 19.0241 15.082 19.0006Z" stroke="#000000" stroke-width="1.5" stroke-linecap="round" stroke-linejoin="round"/>
</svg>

<svg xmlns="http://www.w3.org/2000/svg" width="800" height="800" fill="none" viewBox="0 -0.5 25 25"><path stroke="#000" stroke-linecap="round" stroke-linejoin="round" stroke-width="1.5" d="M9.918 10H7.082A1.57 1.57 0 0 0 5.5 11.556v5.89A1.569 1.569 0 0 0 7.082 19h2.836a1.569 1.569 0 0 0 1.582-1.555v-5.889a1.569 1.569 0 0 0-1.582-1.555ZM9.918 4H7.082A1.54 1.54 0 0 0 5.5 5.495v1.014A1.54 1.54 0 0 0 7.082 8h2.836A1.54 1.54 0 0 0 11.5 6.508V5.494A1.54 1.54 0 0 0 9.918 4ZM15.082 13h2.835a1.57 1.57 0 0 0 1.583-1.555V5.557A1.569 1.569 0 0 0 17.918 4h-2.836A1.57 1.57 0 0 0 13.5 5.557v5.888A1.569 1.569 0 0 0 15.082 13ZM15.082 19h2.835a1.54 1.54 0 0 0 1.583-1.492v-1.014A1.54 1.54 0 0 0 17.918 15h-2.836a1.54 1.54 0 0 0-1.582 1.493v1.013A1.54 1.54 0 0 0 15.082 19Z" clip-rule="evenodd"/></svg>
